X: 1
T: Heights Of Alma, The
M: 4/4
L: 1/8
R: hornpipe
K: Dmaj
EF|:A3 B ABcd|e2 d2 ef g2|G2 GE G3 A|B2 AB AG E2|
A3 B ABcd|e2 d2 e3 f|gf e2 dB G2|1 A4 A3 E:|2 A4 A3 f||
g3 f gfed|ef g2 a2 af|g3 f g3 d|e2 B2 A2 G2|
g2gf gfed|ef g2 a2 af|gf e2 dB G2| A4 A4:|
